X: 568
T: Shui buxing
L: 1/8
M: 2/4
K: A
A A A F [I:setbarnb 1]| 
e4 | 
e3f | 
e e/ e/ e A | 
B2z2 | 
e e e A | 
B2z2 | 
e e e A | 
B2z2 | 
e c e c/ F/ | 
E E/ F/E2 | 
e e e c/ F/ | 
E E/ F/E2 | 
B cB2 | 
B e c e | 
B> c E E/ F/ | 
E E/ F/ E E/ F/ | 
E E/ F/ A F | 
E4 |]

@@@ Tune index: 9442
